X:1
T:I Would Draw Nearer to Jesus
T:Robert Harkness (1880-1961)
T:I Would Draw Nearer to Jesus
T:Public Domain
T:Public Domain
C:Robert Harkness (1880-1961)
Z:Public Domain
%%score ( 1 2 ) ( 3 4 )
L:1/8
M:6/4
K:Bb
V:1 treble 
V:2 treble 
V:3 bass 
V:4 bass 
V:1
 [B,D]2 [B,D]2 [B,D]2 [A,C]2 [A,D]2 [A,E]2 | [B,F]6 [B,G]6 | %2
w: 1.~I would draw near- er to|Je- sus,|
w: 2.~I would draw near- er to|Je- sus,|
w: 3.~I would draw near- er to|Je- sus,|
 [A,G]2 [A,F]2 [A,C]2 [A,E]2 [A,D]2 [A,C]2 | [B,D]12 | [CD]2 [CD]2 [CD]2 [CA]2 [C=E]2 [D^F]2 | %5
w: In His sweet pre- sence a-|bide,|Con- stant- ly try- ing to|
w: No- thing with- hold- ing from|Him,|Know- ing He loves to be|
w: Seek- ing His strength to be|true,|Will- ing to tell of His|
 [DG]6 [DB]6 | [C=E]2 [CE]2 [CE]2 [EB]2 [EA]2 [EG]2 | (F2 C2 D2 E6) || %8
w: serve Him,|Safe and se- cure at His|side. * * *|
w: gra- cious,|I would draw near- er to|Him. * * *|
w: good- ness,|Glad- ly His blest will to|do. * * *|
"^Refrain" [DB]2 [DB]2 [DB]2 [CA]2 [CD]2 [CB]2 | [CA]6 (B,4 F2) | %10
w: ||
w: ||
w: ||
 [=Ec]2 [EG]2 [EA]2 [EB]2 [EA]2 [EG]2 | [Ec]12 | [Fd]2 [Fc]2 [FB]2 [Gc]2 [GB]2 [EG]2 | %13
w: |||
w: |||
w: |||
 [DF]6 [DB]6 | [B,D]2 [A,C]2 [B,D]2 [A,F]2 [A,E]2 [A,C]2 | [F,B,]12 |] %16
w: |||
w: |||
w: |||
V:2
 x12 | x12 | x12 | x12 | x12 | x12 | x12 | F12 || x12 | x6 G6 | x12 | x12 | x12 | x12 | x12 | %15
 x12 |] %16
V:3
 [B,,F,]2 [B,,F,]2 [B,,F,]2 [E,F,]2 [D,F,]2 [C,F,]2 | [D,F,]6 [_D,_F,]6 | %2
w: ~ ~ ~ ~ ~ ~|~ ~|
 [C,E,]2 [C,E,]2 [F,,E,]2 [F,,G,]2 [F,,F,]2 [F,,F,]2 | [B,,F,]12 | %4
w: ~ ~ ~ ~ ~ ~|~|
 [D,F,]2 [D,F,]2 [D,F,]2 [D,F,]2 [D,G,]2 [D,A,]2 | [B,,G,]6 [G,,G,]6 | %6
w: ~ ~ ~ ~ ~ ~|~ ~|
 [C,G,]2 [C,A,]2 [C,B,]2 [C,D]2 [C,C]2 [C,B,]2 | (A,4 B,2 C6) || %8
w: ~ ~ ~ ~ ~ ~|~ * *|
 [B,,F,]2 [B,,F,]2 [B,,F,]2 [D,^F,]2 [D,F,]2 [D,F,]2 | [E,^F,]6 ([E,G,]4 [D,=B,]2) | %10
w: would draw near- er to Je-|sus, I *|
 [C,G,]2 [C,B,]2 [C,B,]2 [C,D]2 [C,C]2 [C,B,]2 | [F,A,]12 | %12
w: would draw near- er to Him;|Ful-|
 [B,,B,]2 [C,A,]2 [D,B,]2 [E,G,]2 [E,B,]2 [E,B,]2 | [B,,B,]6 [B,,F,]6 | %14
w: ly sur- ren- dered each mo-|ment, I|
 F,2 F,2 [F,,F,]2 [F,,C,]2 [F,,C,]2 [F,,E,]2 | [B,,D,]12 |] %16
w: would draw near- er to Him.||
V:4
 x12 | x12 | x12 | x12 | x12 | x12 | x12 | F,12 || x12 | x12 | x12 | x12 | x12 | x12 | F,2 F,2 x8 | %15
w: |||||||I||||||||
 x12 |] %16
w: |

